X: 4546
T: Boston Blues
R: reel
M: 4/4
K: Eminor
beeb g/f/ebg|eABd egfd|B2AG F/E/D FA|d2eg fdAF|
EFGB FGAF|B/^c/d eg ageg|a2ge d~B3|1 ea g/e/d ~e3a:|2 egfd ~e3f||
|:~g3a ~f3a|e2dg edBA|B/A/G Bd ege^c|d~a3 b2af|
[1 gBfB eBdB|dBAF DF B/^c/d|cAge d~b3|eg f/e/d ~e3f:|
[2 gBeg fdAF|BAGF EFGE|FAcA F~b3|egfd ~e3a||

